X:45
T: SO FAHREN DIE DAMEN SO REITEN DIE HERREN
N: K0352
O: Europa, Mitteleuropa, Deutschland, Berlin
R: Kinder -, Schaukel -, Knierreiter -, Spiel - Lied
M: 3/4
L: 1/8
K: G
D2 | G3AB2 | A2D2
D2 | A3Bc2 | B2G2
D2 | D2D2D2 | D2D2
D2 | D2D2D2 | D2D2
D2 | G2G2G2 | G2G2
D2 | G2G2G2 | G2G2z2
d2D2D2 | D2D2D2
d2D2D2 | D2D2

